ion/git-network-sharp.svg

<svg viewBox="0 0 512 512" xmlns="http://www.w3.org/2000/svg"><path d="M384 32v0c-35.35 0-64 28.66-63.99 64.01 0 9.59 2.16 19.07 6.31 27.71l-70.83 80.82 -70.19-80.1v0c15.71-31.67 2.78-70.07-28.88-85.78 -31.67-15.72-70.07-2.79-85.78 28.87 -15.72 31.66-2.79 70.06 28.87 85.77 8.84 4.39 18.59 6.67 28.46 6.67 1.1 0 2.2 0 3.29-.08l92.71 105.78v94.91 0c-30.62 17.67-41.1 56.81-23.43 87.42s56.81 41.09 87.42 23.42c30.61-17.68 41.09-56.82 23.42-87.43 -5.62-9.73-13.7-17.81-23.43-23.43v-96.05l91.78-104.71c1.39.09 2.8.15 4.22.15v0c35.34 0 64-28.66 64-64 0-35.35-28.66-64-64-64ZM96 96v0c0-17.68 14.32-32 32-32 17.67 0 32 14.32 32 32 0 17.67-14.33 32-32 32v0c-17.68 0-32-14.33-32-32Zm160 352v0c-17.68 0-32-14.33-32-32 0-17.68 14.32-32 32-32 17.67 0 32 14.32 32 32v0c0 17.67-14.33 32-32 32Zm128-320v0c-17.68 0-32-14.33-32-32 0-17.68 14.32-32 32-32 17.67 0 32 14.32 32 32v0c0 17.67-14.33 32-32 32Z"/></svg>

<svg xmlns="http://www.w3.org/2000/svg" width="512" height="512" viewBox="0 0 512 512"><path d="M384,32a64,64,0,0,0-57.67,91.73L255.5,204.55l-70.19-80.1A64,64,0,1,0,128,160c1.1,0,2.2,0,3.29-.08L224,265.7v94.91a64,64,0,1,0,64,0V264.56l91.78-104.71c1.39.09,2.8.15,4.22.15a64,64,0,0,0,0-128ZM96,96a32,32,0,1,1,32,32A32,32,0,0,1,96,96ZM256,448a32,32,0,1,1,32-32A32,32,0,0,1,256,448ZM384,128a32,32,0,1,1,32-32A32,32,0,0,1,384,128Z"/></svg>
